X:99
T:Wine cannot Cure.2voices. JJo.099
T:From Night til Morn,aka.2voices. JJo.099
S:J.Jones MS,1801,N.Shrops.
N:2 voice arrangement of the song tune now better known as
N:’From Night til Morn’. The piece was performed at Covent Garden
N:as a duet, from which this arr. was probably taken. NeilB
N:”Wine cannot cure the pain I endure” melody from “The Surrender of Calais”
N:by samuel Arnold, accompaniment by Mr. Thomas Brabazon Gray.
A:N Shropshire
B:”From night til morn I take my glass, in hopes to forget my Cloe…
B:…Ah No no no wine cannot cure the pain I endure for my Cloe”
B:http://levysheetmusic.jhu.edu/index.html
Z:Neil Brookes 2006
M:4/4
L:1/8
Q:1/4=140
K:C
[V:1]g>f|e2e2e3e|{e}dcde c2de|fedc cdef|g3a/f/e2 g>f|!
[V:2]e>d|c2c2c3c|FEFG E2FG|AGFE EAcd|e3f/d/c2 e>d|!
[V:1]e2e2e3e|{e}dcde c2de|fe.d.c cd.e.f|e2 e/d/c/d/ c2||!
[V:2]cGEG CGEG|FEFG E2FG|AG.F.E EF.G.A|G2 G/F/E/F/E2||!
[V:1]c2|cdefg3g|g2{b}a>g g3g|a3gc’3e|g3a/f/e2(3g^f=f|!
[V:2]E2|EAcd ecec|ec f>e ecec|fcec .eEGc|e3f/d/c2z2|!
[V:1].e2.e2.e2z2|dcde c2de|fe.d.c cd.e.f|g3a/f/e2 (3g^f=f|!
[V:2](3.C.E.G (3.C.E.G (3.C.E.G (3CEG|(3G,DF (3G,DF E2FG|\
AG.F.E EG.c.d|e3f/d/c2z2|!
[V:1].e2.e2.e2z2|{e}dcde c2de|fedc cdef|e2e/d/c/d/c2|]
[V:2](3CEG (3CEG (3CEG (3CEG|(3G,DF (3G,DF ECFG|\
AGFE EFGA|G2G/F/E/F/E2|]

